X: 20081
M: 6/8
L: 1/8
K: D
d3 e3 | f3 z2g | aba gfg | f3 z2A |\
d3 e3 | f3 z2g | fgf ede | d3 z2 :|
|: fg |\
a2a a2f | g2g g2e | f2 ffe d | {d}f2z zAA |\
d3 e3 | f3 z2g | fgf ede d3 z2 :|


